X:1039
T:Miss Admiral Gordon's Reel.
M:C
L:1/8
Q:1/4=80 "Slow"
I: || ||
Z:Jack Campin * www.campin.me.uk * 2009
K:D
A|d/d/d d<d  d>Ad>b| a<f`Te>d         B2TB>e|d/d/d d<d d>Ad>b|a>b``d'<f             a2 a>b |
  a>b```d'<f a<fe>d| e>f (g/f/)(e/d/) B2 B>e|d/d/d d<d d>Ad<b|a<f`Te>f              d2 d  ||
A|F>A```d>A  B<Ad<A|Tf>a (g/f/)(e/d/) B2 B>A|F>A```d>A B<Ad<A|f>g (a/b/)(c'/d'/) {b}a2 a>c'|
  d'c'`Tba   ba`gf | e>f  g/f/e/d/    B2 B>e|d/d/d d<d d>Ad<b|a<f``e>f              d2 d  |]
<end>
<start>
